X: 10613
M: C|
L: 1/8
K: Gm
!p!c |\
(B/c/d) Gd BGdB | (A/B/c) (Fc) AFcA |\
(B/c/d) (Gd) BGdG | (^F/G/A) D>F {F}G2G :|\
!f!A |\
g/a/b (=fd) (B/c/d/e/) fd | c>dcB A>BcA |\


